img/svg/logo_visa.svg

<svg width="48" height="16" viewBox="0 0 48 16" fill="none" xmlns="http://www.w3.org/2000/svg">
<path d="M34.8931 0.655137C33.7776 0.213018 32.5985 -0.00884013 31.4112 1.05892e-05C27.5718 1.05892e-05 24.8602 2.10373 24.841 5.12358C24.817 7.34214 26.7679 8.59237 28.2437 9.33363C29.7579 10.0958 30.2642 10.576 30.2594 11.2573C30.2498 12.2935 29.05 12.7633 27.9341 12.7633C26.4008 12.7633 25.5633 12.531 24.2747 11.9489L23.7972 11.7062L23.2525 15.1828C24.1859 15.6056 25.8681 15.9684 27.6054 15.9998C31.6872 15.9998 34.3556 13.9091 34.3868 10.6961C34.4204 8.92385 33.3645 7.58488 31.1425 6.47821C29.7915 5.76044 28.954 5.28019 28.954 4.55198C28.954 3.90729 29.6715 3.21823 31.1713 3.21823C32.1694 3.19196 33.1614 3.39566 34.082 3.81594L34.442 3.99081L34.9867 0.631647L34.8931 0.655137ZM44.8564 0.281898H41.8569C40.9234 0.281898 40.2203 0.561176 39.8124 1.56866L34.0436 15.7831H38.1254L38.9413 13.4523L43.923 13.4575C44.0405 14.003 44.4005 15.7831 44.4005 15.7831H47.9999L44.8564 0.281898ZM19.3194 0.151394H23.2093L20.776 15.6604H16.891L19.3194 0.146174V0.151394ZM9.44492 8.69938L9.84806 10.8527L13.6491 0.281898H17.7693L11.6478 15.7622H7.53721L4.17771 2.65445C4.1233 2.43832 3.99552 2.25269 3.82017 2.13505C2.60931 1.4547 1.32633 0.938403 -6.10352e-05 0.597715L0.0527309 0.271456H6.31339C7.16286 0.307997 7.84676 0.597716 8.07473 1.58432L9.44252 8.70721V8.69938H9.44492ZM40.0571 10.2811L41.6073 5.94314C41.5881 5.99013 41.9265 5.04789 42.1232 4.46584L42.3896 5.80481L43.2894 10.2785H40.0547V10.2811H40.0571Z" fill="#E0E0E0"/>
</svg>

<svg width="48" height="16" fill="none" version="1.1" viewBox="0 0 48 16" xmlns="http://www.w3.org/2000/svg">
 <path d="m34.893 0.65514c-1.1155-0.44212-2.2946-0.66398-3.4819-0.65513-3.8394 0-6.551 2.1037-6.5702 5.1236-0.024 2.2186 1.9269 3.4688 3.4027 4.21 1.5142 0.76217 2.0205 1.2424 2.0157 1.9237-0.0096 1.0362-1.2094 1.506-2.3253 1.506-1.5333 0-2.3708-0.2323-3.6594-0.8144l-0.4775-0.2427-0.5447 3.4766c0.9334 0.4228 2.6156 0.7856 4.3529 0.817 4.0818 0 6.7502-2.0907 6.7814-5.3037 0.0336-1.7722-1.0223-3.1112-3.2443-4.2179-1.351-0.71777-2.1885-1.198-2.1885-1.9262 0-0.64469 0.7175-1.3338 2.2173-1.3338 0.9981-0.02627 1.9901 0.17743 2.9107 0.59771l0.36 0.17487 0.5447-3.3592-0.0936 0.02349zm9.9633-0.37324h-2.9995c-0.9335 0-1.6366 0.27928-2.0445 1.2868l-5.7688 14.214h4.0818l0.8159-2.3308 4.9817 0.0052c0.1175 0.5455 0.4775 2.3256 0.4775 2.3256h3.5994l-3.1435-15.501zm-25.537-0.1305h3.8899l-2.4333 15.509h-3.885l2.4284-15.514v0.00522zm-9.8745 8.548 0.40314 2.1533 3.801-10.571h4.1202l-6.1215 15.48h-4.1106l-3.3595-13.108c-0.05441-0.21613-0.18219-0.40176-0.35754-0.5194-1.2109-0.68035-2.4938-1.1966-3.8202-1.5373l0.052792-0.32626h6.2607c0.84947 0.036541 1.5334 0.32626 1.7613 1.3129l1.3678 7.1229v-0.00783h0.0024zm30.612 1.5817 1.5502-4.338c-0.0192 0.04699 0.3192-0.89525 0.5159-1.4773l0.2664 1.339 0.8998 4.4737h-3.2347v0.0026h0.0024z" fill="#E0E0E0" style="fill:#ffffff"/>
</svg>
